lib/healthicons/icons/outline/symbols/dhis2_logo.svg

<svg fill="none" height="48" viewBox="0 0 48 48" width="48" xmlns="http://www.w3.org/2000/svg"><g fill="#333"><path d="m24.9589 15.3012 9.329 5.9052-1.7397 1.2658-8.6227-5.4581-8.5395 5.4559-1.7282-1.2692 9.2271-5.8951c.6353-.406 1.437-.4077 2.074-.0045z"/><path clip-rule="evenodd" d="m6.83537 20.9127c-1.15791-.8504-1.10227-2.6487.10583-3.4206l15.9437-10.18645c.6353-.40593 1.437-.40765 2.074-.00445l16.0929 10.1868c1.2174.7706 1.2732 2.5807.1057 3.4302l-16.0924 11.7088c-.6862.4992-1.6015.4972-2.2856-.0052zm1.18262-1.7352 15.90751-10.1634 16.0566 10.1638c.0048.003.0055.0042.0047.0033-.0005-.0005.0001 0 .0016.0027.0037.0068.0107.0246.0115.0512.0008.0267-.005.0459-.009.0545-.0017.0036-.0029.0051-.0031.0054 0 0-.0015.002-.0069.0059l-16.0549 11.6815-15.9068-11.6817c-.0052-.0039-.00679-.0059-.00693-.0061-.00031-.0004-.0015-.0019-.00321-.0056-.00404-.0087-.0098-.0278-.00898-.0542.00081-.0265.0077-.0441.01143-.051.00152-.0028.00221-.0034.00176-.0029-.0007.0008.00006-.0004.00472-.0034z" fill-rule="evenodd"/><path d="m8.23713 24.6641 1.72823 1.2692-1.94737 1.2442c-.0028.0018-.00419.0029-.00471.0034-.00024.0003-.00086.0012-.00177.0029-.00373.0069-.01062.0245-.01143.051-.00082.0264.00494.0455.00898.0542.00076.0017.00142.0029.00195.0038.00064.001.00108.0016.00125.0018.00014.0002.00174.0022.00694.0061l15.9068 11.6817 16.0549-11.6815c.0054-.0039.0069-.0059.0069-.0059.0001-.0002.0006-.0007.0012-.0018.0005-.0008.0011-.002.0019-.0036.004-.0086.0098-.0278.009-.0545-.0008-.0266-.0078-.0444-.0115-.0512l-.0016-.0027c-.0001-.0002-.0002-.0002 0 0-.0005-.0005-.002-.0016-.0047-.0033l-1.9803-1.2536 1.7397-1.2658 1.3103.8295c1.2174.7706 1.2732 2.5807.1057 3.4302l-16.0924 11.7088c-.6862.4992-1.6015.4972-2.2856-.0052l-15.94413-11.7091c-1.15791-.8504-1.10227-2.6487.10583-3.4206z"/></g></svg>

<svg width="48" height="48" viewBox="0 0 48 48" fill="none" xmlns="http://www.w3.org/2000/svg">
<path d="M24.9589 15.3012L34.2879 21.2064L32.5482 22.4722L23.9255 17.0141L15.386 22.47L13.6578 21.2008L22.8849 15.3057C23.5202 14.8997 24.3219 14.898 24.9589 15.3012Z" fill="#333333"/>
<path fill-rule="evenodd" clip-rule="evenodd" d="M6.83537 20.9127C5.67746 20.0623 5.7331 18.264 6.9412 17.4921L22.8849 7.30565C23.5202 6.89972 24.3219 6.898 24.9589 7.3012L41.0518 17.488C42.2692 18.2586 42.325 20.0687 41.1575 20.9182L25.0651 32.627C24.3789 33.1262 23.4636 33.1242 22.7795 32.6218L6.83537 20.9127ZM8.01799 19.1775L23.9255 9.0141L39.9821 19.1779C39.9869 19.1809 39.9876 19.1821 39.9868 19.1812C39.9863 19.1807 39.9869 19.1812 39.9884 19.1839C39.9921 19.1907 39.9991 19.2085 39.9999 19.2351C40.0007 19.2618 39.9949 19.281 39.9909 19.2896C39.9892 19.2932 39.988 19.2947 39.9878 19.295C39.9878 19.295 39.9863 19.297 39.9809 19.3009L23.926 30.9824L8.0192 19.3007C8.014 19.2968 8.01241 19.2948 8.01227 19.2946C8.01196 19.2942 8.01077 19.2927 8.00906 19.289C8.00502 19.2803 7.99926 19.2612 8.00008 19.2348C8.00089 19.2083 8.00778 19.1907 8.01151 19.1838C8.01303 19.181 8.01372 19.1804 8.01327 19.1809C8.01257 19.1817 8.01333 19.1805 8.01799 19.1775Z" fill="#333333"/>
<path d="M8.23713 24.6641L9.96536 25.9333L8.01799 27.1775C8.01519 27.1793 8.0138 27.1804 8.01328 27.1809C8.01304 27.1812 8.01242 27.1821 8.01151 27.1838C8.00778 27.1907 8.00089 27.2083 8.00008 27.2348C7.99926 27.2612 8.00502 27.2803 8.00906 27.289C8.00982 27.2907 8.01048 27.2919 8.01101 27.2928C8.01165 27.2938 8.01209 27.2944 8.01226 27.2946C8.0124 27.2948 8.014 27.2968 8.0192 27.3007L23.926 38.9824L39.9809 27.3009C39.9863 27.297 39.9878 27.295 39.9878 27.295C39.9879 27.2948 39.9884 27.2943 39.989 27.2932C39.9895 27.2924 39.9901 27.2912 39.9909 27.2896C39.9949 27.281 40.0007 27.2618 39.9999 27.2351C39.9991 27.2085 39.9921 27.1907 39.9884 27.1839L39.9868 27.1812C39.9866 27.181 39.9867 27.181 39.9868 27.1812C39.9863 27.1807 39.9848 27.1796 39.9821 27.1779L38.0018 25.9243L39.7415 24.6585L41.0518 25.488C42.2692 26.2586 42.325 28.0687 41.1575 28.9182L25.0651 40.627C24.3789 41.1262 23.4636 41.1242 22.7795 40.6218L6.83537 28.9127C5.67746 28.0623 5.7331 26.264 6.9412 25.4921L8.23713 24.6641Z" fill="#333333"/>
</svg>
